X:1
T:Title
L:1/8
M:9/8
I:linebreak $
K:D
V:1 treble nm="Voice"
V:1
"D" FDF F2 D"G" G2 E |"D" FDF F2 D"A" E2 D |"D" FDF F2 D"G" G2 B |"D" AFD DEF"A" E2 D :: %4
"G" B3 BAG"D" FGA |"G" B2 E E2 F G2 B |"A" ABc"G" dcB"A" ABc |"D" d2 D D2 F E2 D :: %8
"D" fdf f2 d"G" g2 e |"D" fdf f2 d"A" e2 d |"D" fdf f2 d"G" g2 b |"D" afd def"A" e2 d :: %12
"G" gfe d=cB"D" AGA |"G" B2 E E2 F G2 B |"A" ABc"G" dcB"A" ABc |"D" d2 D DEF E2 D :| %16
